!!!SOCIAL_FUNCTION:	miscellaneous songs
!!!PDT:	1943
!!!OTL: No_97_Song_of_a_Man_Alone_at_Home.krn
!!!REG: British Columbia
**kern
*staff1
=1-
*clefF4
*k[f#c#g#d#]
*M2/4
4r
8.E\L
16E\Jk
=2
4B\
8.c#\L
16B\Jk
=3
8.B\L
16B\Jk
8.B\L
16G#\Jk
=4
4G#\
8.B\L
16G#\Jk
=5
4..B\
16G#\
=6||
*M3/4
8.B\L
16B\Jk
8G#\L
8F#\J
8E\L
8G#\J
=7
4B\
4G#\
8G#\L
16F#\Jk
16r
=8||
*M2/4
8G#\L
16F#\L
16F#\JJ
8F#\L
8E\J
=9
8E\
8r
8.E\L
16E\Jk
=10
4.F#\
16E\
16r
=11
8F#\L
16E\L
16E\JJ
4E\
=12
8F#\
8r
8.F#\L
16F#\Jk
=13
4B\
8.c#\L
16B\Jk
=14
8.B\L
16B\Jk
(8.B\L
16G#\Jk)
=15||
*M3/4
4G#\
8.c#\L
16B\Jk
4B\
=16||
*M2/4
12B\L
12G#\
12G#\J
8.B\L
16B\Jk
=17
8G#\L
8F#\J
8E\
16r
16B\
=18
8.B\L
16G#\Jk
4G#\
=19
12G#\L
12F#\
12E\J
8.G#\L
16G#\Jk
=20||
*M3/4
8F#\L
8E\J
8E\
8r
8.E\L
16E\Jk
=21||
*M2/4
4F#\
16F#\LL
16E\JJ
8r
=22
8F#\L
16E\L
16E\JJ
4E\
=23
8F#\
4.r
==
*-
